packages/sources/assets/src/assets/eway.svg

<svg width="58" height="40" viewBox="0 0 58 40" fill="none" xmlns="http://www.w3.org/2000/svg">
<rect x="0.5" y="0.5" width="57" height="39" rx="3.5" fill="white" stroke="#F3F3F3"/>
<path fill-rule="evenodd" clip-rule="evenodd" d="M15.8113 8.00729C16.0628 8.09114 16.3318 8.09478 16.5904 8.14218C18.0857 8.43382 19.4203 9.08638 20.5767 10.1181C22.0056 11.3904 22.9663 12.9798 23.3646 14.8974C23.9795 17.8503 23.3402 20.497 21.4396 22.7828C20.1819 24.2957 18.5888 25.2472 16.7022 25.6227C14.316 26.0966 12.108 25.6081 10.1236 24.1426C8.36278 22.8411 7.22385 21.0767 6.74871 18.8784C6.22466 16.4614 6.61245 14.1865 7.88415 12.0903C8.71215 10.7269 9.83362 9.6879 11.2101 8.95149C12.1499 8.44841 13.1526 8.14582 14.2042 8.03646C14.2426 8.03281 14.288 8.05104 14.309 8C14.8086 8.00729 15.3117 8.00729 15.8113 8.00729ZM15.0636 9.68061C11.3813 9.64051 8.19509 12.7684 8.1322 16.7712C8.06582 20.8689 11.252 24.1134 15.0287 24.128C18.8019 24.1426 21.9601 20.9709 21.9881 16.9681C22.0091 12.9215 18.9102 9.68061 15.0636 9.68061Z" fill="#FCB922"/>
<path fill-rule="evenodd" clip-rule="evenodd" d="M27.2007 30.9744C26.8268 30.9234 26.446 30.9489 26.0722 30.9343C24.8983 30.8833 23.7245 30.8286 22.5541 30.7338C21.6213 30.6609 20.6885 30.5734 19.7591 30.4677C18.7075 30.3474 17.6594 30.2052 16.6113 30.0412C15.3536 29.8443 14.0994 29.611 12.8556 29.3376C9.49823 28.5975 6.21767 27.6059 3.08385 26.1185C3.05939 26.1076 3.03494 26.0894 3 26.0711C3.09084 26.031 3.1642 26.0602 3.24106 26.0821C5.54339 26.7237 7.87018 27.2596 10.2179 27.6898C11.9822 28.0142 13.7535 28.2877 15.5318 28.5064C16.779 28.6595 18.0263 28.7944 19.2805 28.9074C20.7409 29.0386 22.2012 29.1371 23.6651 29.2063C24.8844 29.2647 26.1071 29.2938 27.3264 29.3193C28.2767 29.3376 29.2235 29.3412 30.1738 29.3303C31.7145 29.3121 33.2552 29.2683 34.7959 29.1845C36.2877 29.1043 37.7795 28.9985 39.2678 28.8564C40.7771 28.7105 42.2863 28.5356 43.7921 28.3241C46.4438 27.9523 49.0745 27.471 51.6843 26.8549C52.7569 26.6034 53.8224 26.3263 54.881 26.0238C54.902 26.0165 54.9264 26.0201 54.9998 26.0128C54.9125 26.0639 54.8705 26.093 54.8216 26.1149C52.9071 27.0336 50.9227 27.7554 48.8964 28.3569C47.2578 28.8418 45.5983 29.2428 43.9249 29.5782C42.5833 29.848 41.2347 30.0667 39.8792 30.2526C38.335 30.4677 36.7838 30.6281 35.2291 30.7484C34.209 30.8286 33.1853 30.8833 32.1652 30.9234C31.9206 30.9343 31.6726 30.8979 31.4315 30.9781C30.0201 30.9744 28.6086 30.9744 27.2007 30.9744Z" fill="#FCB922"/>
<path fill-rule="evenodd" clip-rule="evenodd" d="M28.6785 13.946C28.413 14.8428 28.151 15.7359 27.8854 16.6327C27.5046 17.9306 27.1203 19.2284 26.7465 20.5262C26.7011 20.683 26.6102 20.6502 26.5124 20.6574C26.4041 20.6684 26.3517 20.6392 26.3168 20.5153C25.8102 18.6013 25.2966 16.6911 24.7865 14.7771C24.6678 14.3251 24.5455 13.8767 24.4197 13.4283C24.3848 13.308 24.4127 13.2825 24.528 13.2825C24.8739 13.2788 24.8704 13.2752 24.9647 13.6434C25.4713 15.6594 25.9779 17.6754 26.4845 19.695C26.495 19.7315 26.5054 19.7679 26.5334 19.8591C26.6242 19.5419 26.7046 19.2721 26.7814 19.0024C27.3195 17.1577 27.854 15.313 28.385 13.4684C28.427 13.3262 28.4794 13.2788 28.6191 13.2825C28.9475 13.2934 28.951 13.2861 29.0453 13.6142C29.6288 15.6302 30.2157 17.6499 30.7992 19.6659C30.8131 19.7169 30.8306 19.7643 30.862 19.8591C30.9738 19.4216 31.0752 19.0242 31.1765 18.6269C31.6132 16.8916 32.0499 15.1563 32.4831 13.421C32.5111 13.308 32.5565 13.2752 32.6613 13.2825C32.7696 13.2898 32.8814 13.2861 33.0072 13.2861C32.8464 13.8949 32.6892 14.4819 32.532 15.0724C32.0499 16.8806 31.5643 18.6888 31.0786 20.497C31.0542 20.5955 31.0332 20.6793 30.904 20.6574C30.7957 20.6429 30.6943 20.6866 30.6454 20.508C30.0271 18.3826 29.3982 16.2609 28.7728 14.1355C28.7554 14.0735 28.7309 14.0116 28.7134 13.9496C28.6995 13.9496 28.689 13.946 28.6785 13.946Z" fill="#424143"/>
<path fill-rule="evenodd" clip-rule="evenodd" d="M34.6177 13.9095C34.6003 13.421 34.5409 13.5194 34.9322 13.421C35.9104 13.184 36.8991 13.0965 37.8843 13.3663C38.6494 13.5741 39.0582 14.0954 39.149 14.9157C39.1735 15.1381 39.184 15.3641 39.184 15.5865C39.184 17.1905 39.184 18.7946 39.1805 20.395C39.1805 20.4569 39.2468 20.559 39.1176 20.5809C38.9918 20.6064 38.9429 20.5408 38.908 20.4278C38.873 20.3002 38.8521 20.1179 38.7682 20.0705C38.6774 20.0158 38.5551 20.1689 38.4363 20.22C37.4616 20.6356 36.4554 20.8069 35.4213 20.5189C34.5444 20.2747 34.0238 19.5711 33.9784 18.6232C33.9504 18.0144 34.0308 17.4348 34.45 16.9645C34.8134 16.5598 35.285 16.3775 35.7881 16.2864C36.5323 16.1515 37.2834 16.1625 38.031 16.1005C38.2267 16.0823 38.4258 16.075 38.6215 16.064C38.6739 16.0604 38.7298 16.064 38.7298 15.9838C38.7298 15.488 38.7612 14.9849 38.5865 14.5074C38.4014 13.997 37.9996 13.7746 37.514 13.6944C36.5707 13.534 35.6379 13.6215 34.719 13.884C34.6841 13.8949 34.6527 13.9022 34.6177 13.9095ZM38.7298 18.0363C38.7298 17.5514 38.7263 17.0666 38.7298 16.5781C38.7298 16.4796 38.7158 16.4432 38.6075 16.4541C38.1848 16.4906 37.762 16.5051 37.3393 16.5416C36.8257 16.5853 36.3052 16.5817 35.7951 16.6838C35.2361 16.7968 34.7749 17.0593 34.5479 17.6389C34.4221 17.9597 34.4081 18.2988 34.4291 18.6414C34.471 19.4216 34.8693 19.9648 35.596 20.1471C36.6825 20.4205 37.7026 20.1835 38.6669 19.6294C38.7403 19.5856 38.7298 19.5237 38.7298 19.4581C38.7298 18.9841 38.7298 18.5102 38.7298 18.0363Z" fill="#424143"/>
<path fill-rule="evenodd" clip-rule="evenodd" d="M41.4793 24.2301C41.8496 23.3151 42.206 22.4292 42.5623 21.5397C42.6846 21.2371 42.7999 20.9345 42.9257 20.6356C42.9641 20.5444 42.9641 20.4679 42.9292 20.3767C42.3108 18.7253 41.6959 17.0702 41.081 15.4151C40.8225 14.7152 40.5639 14.0152 40.2914 13.2861C40.4556 13.2861 40.6024 13.2825 40.7491 13.2861C40.8365 13.2898 40.833 13.3736 40.8539 13.4319C41.1753 14.3178 41.4898 15.2037 41.8042 16.0896C42.2479 17.34 42.6916 18.5868 43.1353 19.8372C43.1458 19.8664 43.1632 19.8882 43.1842 19.9283C43.4916 19.0716 43.7956 18.2259 44.0961 17.3837C44.5642 16.075 45.0358 14.7626 45.497 13.4502C45.5459 13.3153 45.6018 13.2788 45.7311 13.2825C46.0595 13.2898 46.0595 13.2861 45.9407 13.6069C44.7843 16.702 43.6279 19.8007 42.468 22.8958C42.3213 23.2896 42.1675 23.6833 42.0278 24.0806C41.9859 24.1937 41.9405 24.2483 41.8182 24.2338C41.7134 24.2192 41.6086 24.2301 41.4793 24.2301Z" fill="#424143"/>
<path fill-rule="evenodd" clip-rule="evenodd" d="M48.1242 15.528C48.0194 15.5208 47.9146 15.528 47.8098 15.5098C47.1006 15.3932 46.8875 14.8974 46.9189 14.1318C46.9224 14.0297 46.9434 13.9276 46.9643 13.8292C47.0482 13.4173 47.2997 13.173 47.684 13.0855C48.0055 13.0126 48.3304 13.0162 48.6518 13.111C48.9802 13.2095 49.1898 13.4355 49.2772 13.7782C49.361 14.1099 49.361 14.449 49.2806 14.7844C49.1758 15.2145 48.8439 15.4807 48.3688 15.5208C48.2884 15.528 48.2046 15.5208 48.1242 15.5208C48.1242 15.5208 48.1242 15.5244 48.1242 15.528ZM48.1242 15.2911C48.2011 15.2911 48.2745 15.2984 48.3513 15.2911C48.7461 15.2546 48.9557 15.0869 49.0466 14.7224C49.1234 14.4198 49.1199 14.1099 49.0361 13.8073C48.9557 13.523 48.7706 13.3589 48.4981 13.3042C48.3339 13.2714 48.1627 13.2605 47.995 13.2714C47.422 13.3079 47.174 13.5777 47.153 14.1792C47.153 14.2156 47.153 14.2521 47.153 14.2886C47.153 15.0177 47.422 15.2984 48.1242 15.2911Z" fill="#424143"/>
<path fill-rule="evenodd" clip-rule="evenodd" d="M18.3617 19.2867C18.3617 19.8773 18.3582 20.4715 18.3652 21.0658C18.3652 21.1715 18.2988 21.1788 18.2359 21.2043C17.3939 21.5834 16.51 21.7621 15.5947 21.7949C14.9169 21.8204 14.2461 21.7949 13.5963 21.5907C12.3735 21.2079 11.6468 20.3221 11.308 19.068C11.004 17.9488 10.9865 16.8041 11.0809 15.6557C11.1333 15.0068 11.259 14.3725 11.5106 13.771C11.9752 12.6591 12.7893 11.9992 13.9212 11.7513C14.7108 11.5764 15.5039 11.5618 16.2934 11.7331C17.4813 11.9883 18.2254 12.7539 18.5713 13.9533C18.7809 14.686 18.8473 15.4407 18.8613 16.1989C18.8683 16.6255 18.8613 17.0484 18.8718 17.4749C18.8752 17.6061 18.8438 17.6499 18.7076 17.6499C16.8664 17.6462 15.0252 17.6499 13.1806 17.6462C13.0338 17.6462 12.9989 17.6863 13.0268 17.8285C13.0723 18.0582 13.1142 18.2915 13.1876 18.5175C13.488 19.4508 14.1273 19.9393 15.0637 19.9575C16.1607 19.9794 17.2158 19.7862 18.2219 19.3195C18.2604 19.3013 18.2988 19.2685 18.3617 19.2867ZM14.9204 15.9182C15.5318 15.9182 16.1432 15.9146 16.7546 15.9219C16.8594 15.9219 16.8943 15.8964 16.8908 15.7833C16.8769 15.3933 16.8524 15.0068 16.7511 14.6313C16.6323 14.2012 16.4227 13.8475 16.0174 13.647C15.6157 13.4465 15.1929 13.4465 14.7702 13.4976C14.2322 13.5632 13.778 13.7929 13.467 14.2741C13.1841 14.7152 13.0827 15.2146 13.0094 15.7287C12.9849 15.9036 13.0268 15.9255 13.1771 15.9255C13.757 15.9146 14.337 15.9182 14.9204 15.9182Z" fill="#424143"/>
<path fill-rule="evenodd" clip-rule="evenodd" d="M48.7217 14.9594C48.5295 15.025 48.4247 14.9485 48.3653 14.7698C48.3444 14.7078 48.2989 14.6532 48.2815 14.5912C48.2291 14.3797 48.0718 14.4308 47.9321 14.4271C47.8727 14.4271 47.8727 14.4709 47.8727 14.5146C47.8727 14.6167 47.8692 14.7188 47.8727 14.8245C47.8762 14.9193 47.8727 14.9813 47.7504 14.9813C47.6351 14.9776 47.6351 14.9229 47.6351 14.8354C47.6386 14.4672 47.6421 14.0954 47.6351 13.7272C47.6316 13.6105 47.6701 13.5814 47.7749 13.585C47.9531 13.5959 48.1347 13.5887 48.3129 13.6032C48.4561 13.6142 48.5714 13.6944 48.6029 13.8475C48.6378 14.0152 48.6658 14.2011 48.5225 14.3214C48.4247 14.4053 48.4527 14.4563 48.4981 14.5402C48.5784 14.6787 48.6518 14.8209 48.7217 14.9594ZM48.1242 13.8147C47.8832 13.8147 47.8168 13.9204 47.8762 14.1391C47.8902 14.1865 47.9111 14.1938 47.9496 14.1938C48.0544 14.1902 48.1557 14.1902 48.2605 14.1829C48.3548 14.1756 48.4037 14.1173 48.4072 14.0188C48.4107 13.9131 48.3653 13.8438 48.264 13.8293C48.2046 13.8183 48.1487 13.8183 48.1242 13.8147Z" fill="#424143"/>
</svg>

<svg width="58" height="40" fill="none" xmlns="http://www.w3.org/2000/svg"><rect x=".5" y=".5" width="57" height="39" rx="3.5" fill="#fff" stroke="#F3F3F3"/><path fill-rule="evenodd" clip-rule="evenodd" d="M15.811 8.007c.252.084.52.088.78.135a8.262 8.262 0 0 1 3.986 1.976c1.429 1.272 2.39 2.862 2.788 4.78.615 2.952-.025 5.599-1.925 7.885-1.258 1.513-2.851 2.464-4.738 2.84-2.386.474-4.594-.015-6.578-1.48-1.761-1.302-2.9-3.066-3.375-5.265-.524-2.417-.137-4.691 1.135-6.788a8.53 8.53 0 0 1 3.326-3.139 8.061 8.061 0 0 1 2.994-.915c.039-.003.084.015.105-.036.5.007 1.003.007 1.502.007Zm-.747 1.674c-3.683-.04-6.869 3.087-6.932 7.09-.066 4.098 3.12 7.342 6.897 7.357 3.773.015 6.931-3.157 6.96-7.16.02-4.046-3.079-7.287-6.925-7.287ZM27.2 30.974c-.373-.05-.754-.025-1.128-.04a94.232 94.232 0 0 1-3.518-.2 76.846 76.846 0 0 1-5.943-.693 62.609 62.609 0 0 1-3.755-.703c-3.358-.74-6.638-1.732-9.772-3.22-.025-.01-.05-.029-.084-.047.09-.04.164-.01.241.011a79.076 79.076 0 0 0 6.977 1.608c1.764.324 3.536.598 5.314.816 1.247.154 2.494.288 3.748.401 1.46.132 2.921.23 4.385.3 1.22.058 2.442.087 3.661.112.95.019 1.898.022 2.848.011a108.73 108.73 0 0 0 9.094-.474c1.51-.146 3.018-.32 4.524-.532a86.722 86.722 0 0 0 7.892-1.47 68.777 68.777 0 0 0 3.197-.83c.021-.008.045-.004.119-.011-.087.05-.13.08-.178.102-1.915.919-3.9 1.64-5.926 2.242a56.945 56.945 0 0 1-4.971 1.221c-1.342.27-2.69.489-4.046.675a78.424 78.424 0 0 1-7.714.67c-.244.011-.492-.025-.733.055-1.412-.004-2.823-.004-4.231-.004Z" fill="#FCB922"/><path fill-rule="evenodd" clip-rule="evenodd" d="M28.678 13.946c-.265.897-.527 1.79-.793 2.687-.38 1.298-.765 2.595-1.139 3.893-.045.157-.136.124-.234.131-.108.011-.16-.018-.195-.142-.507-1.914-1.02-3.824-1.53-5.738-.12-.452-.241-.9-.367-1.349-.035-.12-.007-.146.108-.146.346-.003.342-.007.437.361l1.52 6.052c.01.037.02.073.048.164.091-.317.172-.587.248-.857.539-1.844 1.073-3.689 1.604-5.534.042-.142.094-.19.234-.185.329.01.332.003.426.331l1.754 6.052c.014.05.032.098.063.193l.315-1.232c.436-1.735.873-3.47 1.306-5.206.028-.113.074-.146.178-.138.109.007.22.003.346.003-.16.609-.318 1.196-.475 1.786-.482 1.809-.968 3.617-1.453 5.425-.025.099-.046.182-.175.16-.108-.014-.21.03-.259-.149-.618-2.125-1.247-4.247-1.872-6.372-.018-.063-.042-.124-.06-.186-.014 0-.024-.004-.035-.004Zm5.94-.036c-.018-.489-.077-.39.314-.489.978-.237 1.967-.324 2.952-.055.765.208 1.174.73 1.265 1.55.024.222.035.448.035.67 0 1.604 0 3.209-.003 4.809 0 .062.066.164-.063.186-.126.025-.175-.04-.21-.153-.035-.128-.056-.31-.14-.358-.09-.054-.213.099-.332.15-.974.416-1.98.587-3.015.299-.877-.244-1.397-.948-1.443-1.896-.028-.609.053-1.188.472-1.659.363-.404.835-.586 1.338-.678.744-.135 1.495-.123 2.243-.186.196-.018.395-.025.59-.036.053-.004.109 0 .109-.08 0-.496.031-1-.143-1.477-.186-.51-.587-.732-1.073-.813-.943-.16-1.876-.073-2.795.19a1.24 1.24 0 0 1-.101.025Zm4.112 4.126c0-.485-.004-.97 0-1.458 0-.098-.014-.135-.122-.124-.423.037-.846.051-1.269.088-.513.043-1.034.04-1.544.142-.559.113-1.02.375-1.247.955-.126.32-.14.66-.119 1.002.042.78.44 1.324 1.167 1.506 1.087.274 2.107.037 3.07-.518.074-.043.064-.105.064-.17v-1.423Zm2.75 6.194c.37-.915.726-1.8 1.082-2.69.123-.303.238-.605.364-.904a.319.319 0 0 0 .003-.26c-.618-1.65-1.233-3.306-1.848-4.96-.259-.7-.517-1.4-.79-2.13.165 0 .311-.003.458 0 .087.004.084.088.105.146.321.886.636 1.772.95 2.658l1.331 3.747c.01.03.028.051.05.091l.911-2.544c.468-1.309.94-2.621 1.401-3.934.049-.135.105-.171.234-.167.328.007.328.003.21.324-1.157 3.095-2.313 6.194-3.473 9.289-.147.394-.3.787-.44 1.185-.042.113-.087.167-.21.153-.105-.015-.21-.004-.339-.004Zm6.644-8.702c-.105-.007-.21 0-.314-.018-.71-.117-.922-.613-.891-1.378.003-.102.024-.204.045-.303.084-.412.336-.656.72-.744.322-.072.646-.069.968.026.328.098.538.324.625.667.084.332.084.671.004 1.006-.105.43-.437.697-.912.737-.08.007-.164 0-.245 0v.007Zm0-.237c.077 0 .15.007.227 0 .395-.036.605-.204.696-.569a1.769 1.769 0 0 0-.01-.915.66.66 0 0 0-.539-.503 1.97 1.97 0 0 0-.503-.033c-.573.037-.821.307-.842.908v.11c0 .729.269 1.01.971 1.002Zm-29.762 3.996c0 .59-.004 1.184.003 1.779 0 .106-.066.113-.13.138-.841.38-1.725.558-2.64.59-.678.026-1.349 0-1.999-.203-1.223-.383-1.95-1.269-2.288-2.523-.304-1.12-.322-2.264-.227-3.412.052-.65.178-1.284.43-1.885.464-1.112 1.278-1.772 2.41-2.02a5.484 5.484 0 0 1 2.372-.018c1.188.255 1.932 1.02 2.278 2.22.21.733.276 1.488.29 2.246.007.426 0 .85.01 1.276.004.131-.027.175-.163.175-1.842-.004-3.683 0-5.527-.004-.147 0-.182.04-.154.182.045.23.087.463.16.69.301.933.94 1.421 1.877 1.44 1.097.021 2.152-.172 3.158-.638.038-.019.077-.052.14-.033Zm-3.442-3.369c.612 0 1.223-.003 1.835.004.104 0 .14-.026.136-.139-.014-.39-.039-.776-.14-1.152-.119-.43-.328-.784-.734-.984-.401-.2-.824-.2-1.247-.15-.538.066-.992.296-1.303.777-.283.441-.384.94-.458 1.455-.024.175.018.197.168.197.58-.011 1.16-.008 1.743-.008Z" fill="#424143"/><path fill-rule="evenodd" clip-rule="evenodd" d="M48.722 14.96c-.193.065-.297-.012-.357-.19-.02-.062-.066-.117-.084-.179-.052-.211-.21-.16-.349-.164-.06 0-.06.044-.06.088 0 .102-.003.204 0 .31.004.094 0 .156-.122.156-.115-.003-.115-.058-.115-.146.004-.368.007-.74 0-1.108-.003-.117.035-.146.14-.142.178.01.36.004.538.018.143.011.258.091.29.245.035.167.063.353-.08.473-.098.084-.07.135-.025.22.08.138.154.28.224.418Zm-.598-1.145c-.24 0-.307.105-.248.324.014.048.035.055.074.055.104-.004.206-.004.31-.011.095-.007.144-.066.147-.164.004-.106-.042-.175-.143-.19-.06-.01-.115-.01-.14-.014Z" fill="#424143"/></svg>
